resources/assets/svg/typescript.svg

<svg width="100%" height="100%" viewBox="0 0 20 20" version="1.1" xmlns="http://www.w3.org/2000/svg" xmlns:xlink="http://www.w3.org/1999/xlink" xml:space="preserve" style="fill-rule:evenodd;clip-rule:evenodd;stroke-linejoin:round;stroke-miterlimit:1.41421;"><path d="M0,10l0,10l20,0l0,-20l-10,0l-10,0l0,10Zm16.117,-0.797c0.508,0.127 0.896,0.353 1.251,0.721c0.184,0.197 0.457,0.555 0.48,0.641c0.006,0.025 -0.864,0.61 -1.391,0.937c-0.019,0.012 -0.095,-0.07 -0.181,-0.197c-0.257,-0.375 -0.527,-0.537 -0.939,-0.565c-0.607,-0.042 -0.997,0.276 -0.994,0.806c0,0.156 0.022,0.248 0.086,0.375c0.133,0.276 0.381,0.441 1.158,0.777c1.432,0.616 2.045,1.023 2.426,1.6c0.425,0.645 0.52,1.673 0.231,2.439c-0.317,0.831 -1.104,1.396 -2.212,1.584c-0.343,0.06 -1.156,0.05 -1.524,-0.016c-0.803,-0.143 -1.565,-0.54 -2.035,-1.061c-0.184,-0.203 -0.543,-0.733 -0.521,-0.771c0.01,-0.013 0.092,-0.063 0.185,-0.117c0.088,-0.051 0.425,-0.245 0.742,-0.429l0.575,-0.333l0.121,0.177c0.168,0.258 0.536,0.61 0.758,0.727c0.638,0.337 1.515,0.289 1.946,-0.098c0.184,-0.168 0.261,-0.343 0.261,-0.6c0,-0.232 -0.029,-0.333 -0.15,-0.508c-0.155,-0.222 -0.473,-0.409 -1.374,-0.8c-1.032,-0.444 -1.476,-0.721 -1.883,-1.159c-0.235,-0.254 -0.457,-0.66 -0.549,-1c-0.076,-0.282 -0.095,-0.99 -0.035,-1.276c0.213,-0.997 0.965,-1.692 2.051,-1.898c0.352,-0.067 1.171,-0.042 1.517,0.044Zm-4.695,0.835l0.007,0.819l-1.302,0l-1.302,0l0,3.699l0,3.698l-0.92,0l-0.921,0l0,-7.397l-1.301,0l-1.302,0l0,-0.803c0,-0.444 0.009,-0.816 0.022,-0.825c0.01,-0.013 1.594,-0.019 3.514,-0.016l3.496,0.009l0.009,0.816Z" style="fill:#007acc;fill-rule:nonzero;"/></svg>

<?xml version="1.0" encoding="UTF-8"?>
<svg width="20px" height="20px" viewBox="0 0 20 20" version="1.1" xmlns="http://www.w3.org/2000/svg" xmlns:xlink="http://www.w3.org/1999/xlink" xmlns:sketch="http://www.bohemiancoding.com/sketch/ns">
    <!-- Generator: Sketch 3.4.2 (15855) - http://www.bohemiancoding.com/sketch -->
    <title>typescript</title>
    <desc>Created with Sketch.</desc>
    <defs></defs>
    <g id="Page-1" stroke="none" stroke-width="1" fill="none" fill-rule="evenodd" sketch:type="MSPage">
        <g id="typescript" sketch:type="MSArtboardGroup" fill="#007ACC">
            <path d="M0,10 L0,20 L20,20 L20,0 L10,0 L0,0 L0,10 L0,10 Z M16.117,9.203 C16.625,9.33 17.013,9.556 17.368,9.924 C17.552,10.121 17.825,10.479 17.848,10.565 C17.854,10.59 16.984,11.175 16.457,11.502 C16.438,11.514 16.362,11.432 16.276,11.305 C16.019,10.93 15.749,10.768 15.337,10.74 C14.73,10.698 14.34,11.016 14.343,11.546 C14.343,11.702 14.365,11.794 14.429,11.921 C14.562,12.197 14.81,12.362 15.587,12.698 C17.019,13.314 17.632,13.721 18.013,14.298 C18.438,14.943 18.533,15.971 18.244,16.737 C17.927,17.568 17.14,18.133 16.032,18.321 C15.689,18.381 14.876,18.371 14.508,18.305 C13.705,18.162 12.943,17.765 12.473,17.244 C12.289,17.041 11.93,16.511 11.952,16.473 C11.962,16.46 12.044,16.41 12.137,16.356 C12.225,16.305 12.562,16.111 12.879,15.927 L13.454,15.594 L13.575,15.771 C13.743,16.029 14.111,16.381 14.333,16.498 C14.971,16.835 15.848,16.787 16.279,16.4 C16.463,16.232 16.54,16.057 16.54,15.8 C16.54,15.568 16.511,15.467 16.39,15.292 C16.235,15.07 15.917,14.883 15.016,14.492 C13.984,14.048 13.54,13.771 13.133,13.333 C12.898,13.079 12.676,12.673 12.584,12.333 C12.508,12.051 12.489,11.343 12.549,11.057 C12.762,10.06 13.514,9.365 14.6,9.159 C14.952,9.092 15.771,9.117 16.117,9.203 L16.117,9.203 Z M11.422,10.038 L11.429,10.857 L10.127,10.857 L8.825,10.857 L8.825,14.556 L8.825,18.254 L7.905,18.254 L6.984,18.254 L6.984,10.857 L5.683,10.857 L4.381,10.857 L4.381,10.054 C4.381,9.61 4.39,9.238 4.403,9.229 C4.413,9.216 5.997,9.21 7.917,9.213 L11.413,9.222 L11.422,10.038 L11.422,10.038 Z" sketch:type="MSShapeGroup"></path>
        </g>
    </g>
</svg>
